img/useCases/Online Gaming.svg

<svg width="94" height="94" fill="none" xmlns="http://www.w3.org/2000/svg"><path d="M93.8 47c0 25.847-20.953 46.8-46.8 46.8C21.153 93.8.2 72.847.2 47 .2 21.153 21.153.2 47 .2 72.847.2 93.8 21.153 93.8 47z" fill="#F9FBFF" stroke="#0037FC" stroke-width=".4"/><path d="M62 51.5c-1.8 0-3.45.45-4.95 1.5h-6.6c-1.5-1.05-3.15-1.5-4.95-1.5-4.95 0-9 4.05-9 9s4.05 9 9 9c1.8 0 3.45-.45 4.95-1.5h6.6c1.5 1.05 3.15 1.5 4.95 1.5 4.95 0 9-4.05 9-9s-4.05-9-9-9zM48.5 62H47v1.5c0 .9-.6 1.5-1.5 1.5s-1.5-.6-1.5-1.5V62h-1.5c-.9 0-1.5-.6-1.5-1.5s.6-1.5 1.5-1.5H44v-1.5c0-.9.6-1.5 1.5-1.5s1.5.6 1.5 1.5V59h1.5c.9 0 1.5.6 1.5 1.5s-.6 1.5-1.5 1.5zm13.35.6c-.15.15-.15.3-.3.45-.15.15-.3.3-.45.3-.15 0-.45.15-.6.15-.15 0-.45 0-.6-.15-.15 0-.3-.15-.45-.3-.15-.15-.3-.3-.3-.45-.15-.15-.15-.45-.15-.6 0-.15 0-.45.15-.6.15-.15.15-.3.3-.45.15-.15.3-.3.45-.3.6-.3 1.2-.15 1.65.3.15.15.3.3.3.45 0 .15.15.45.15.6 0 .15 0 .45-.15.6zm3-3c-.15.15-.15.3-.3.45-.15.15-.3.3-.45.3-.15 0-.45.15-.6.15-.15 0-.45 0-.6-.15-.15 0-.3-.15-.45-.3-.3-.3-.45-.6-.45-1.05 0-.45.15-.75.45-1.05l.15-.15c.15 0 .15-.15.3-.15s.15 0 .3-.15h.6c.15 0 .15 0 .3.15.15 0 .15 0 .3.15l.15.15c.3.3.45.75.45 1.05 0 .15 0 .45-.15.6z" fill="#0037FC"/><path d="M43.25 48.8c.15-.75.15-1.5 0-2.25-.3-1.8-1.65-3.15-3.3-3.75-.9-.3-1.95-.6-3.15-.75-3.6-.75-7.65-1.65-9.15-4.8-.6-1.2-.9-2.25-1.2-3.3C24.35 37.25 23 41.3 23 45.5c0 7.8 4.35 14.7 10.65 18.3 0-.3.15-.45.15-.75-.15-.9-.3-1.65-.3-2.55 0-5.85 4.2-10.65 9.75-11.7z" fill="#0037FC"/><path d="M37.4 39.05c1.2.3 2.4.6 3.45.9 2.7.9 4.8 3.15 5.25 6 .15.9.15 1.8 0 2.7 1.8.15 3.45.6 4.95 1.5h4.35c1.5-1.05 2.7-2.4 3.6-3.9 2.1-3.15 2.55-9 2.7-11.55-3.45-6.15-10.05-10.2-17.7-10.2-5.85 0-11.1 2.4-15 6.3 0 .75.3 2.85 1.35 4.95.9 1.95 4.2 2.55 7.05 3.3zm23.85 9.45H62c.9 0 1.8.15 2.7.3.15-1.05.3-2.25.3-3.3 0-1.8-.3-3.45-.6-5.1-.45 2.55-1.2 5.4-2.55 7.35-.3.3-.45.6-.6.75z" fill="#0037FC"/></svg>

<svg width="94" height="94" viewBox="0 0 94 94" fill="none" xmlns="http://www.w3.org/2000/svg">
<path d="M93.8002 47.0001C93.8002 72.8471 72.8471 93.8002 47.0001 93.8002C21.1531 93.8002 0.2 72.8471 0.2 47.0001C0.2 21.1531 21.1531 0.2 47.0001 0.2C72.8471 0.2 93.8002 21.1531 93.8002 47.0001Z" fill="#F9FBFF" stroke="#0037FC" stroke-width="0.4"/>
<path d="M62 51.5C60.2 51.5 58.55 51.95 57.05 53H50.45C48.95 51.95 47.3 51.5 45.5 51.5C40.55 51.5 36.5 55.55 36.5 60.5C36.5 65.45 40.55 69.5 45.5 69.5C47.3 69.5 48.95 69.05 50.45 68H57.05C58.55 69.05 60.2 69.5 62 69.5C66.95 69.5 71 65.45 71 60.5C71 55.55 66.95 51.5 62 51.5ZM48.5 62H47V63.5C47 64.4 46.4 65 45.5 65C44.6 65 44 64.4 44 63.5V62H42.5C41.6 62 41 61.4 41 60.5C41 59.6 41.6 59 42.5 59H44V57.5C44 56.6 44.6 56 45.5 56C46.4 56 47 56.6 47 57.5V59H48.5C49.4 59 50 59.6 50 60.5C50 61.4 49.4 62 48.5 62ZM61.85 62.6C61.7 62.75 61.7 62.9 61.55 63.05C61.4 63.2 61.25 63.35 61.1 63.35C60.95 63.35 60.65 63.5 60.5 63.5C60.35 63.5 60.05 63.5 59.9 63.35C59.75 63.35 59.6 63.2 59.45 63.05C59.3 62.9 59.15 62.75 59.15 62.6C59 62.45 59 62.15 59 62C59 61.85 59 61.55 59.15 61.4C59.3 61.25 59.3 61.1 59.45 60.95C59.6 60.8 59.75 60.65 59.9 60.65C60.5 60.35 61.1 60.5 61.55 60.95C61.7 61.1 61.85 61.25 61.85 61.4C61.85 61.55 62 61.85 62 62C62 62.15 62 62.45 61.85 62.6ZM64.85 59.6C64.7 59.75 64.7 59.9 64.55 60.05C64.4 60.2 64.25 60.35 64.1 60.35C63.95 60.35 63.65 60.5 63.5 60.5C63.35 60.5 63.05 60.5 62.9 60.35C62.75 60.35 62.6 60.2 62.45 60.05C62.15 59.75 62 59.45 62 59C62 58.55 62.15 58.25 62.45 57.95L62.6 57.8C62.75 57.8 62.75 57.65 62.9 57.65C63.05 57.65 63.05 57.65 63.2 57.5C63.35 57.5 63.65 57.5 63.8 57.5C63.95 57.5 63.95 57.5 64.1 57.65C64.25 57.65 64.25 57.65 64.4 57.8L64.55 57.95C64.85 58.25 65 58.7 65 59C65 59.15 65 59.45 64.85 59.6Z" fill="#0037FC"/>
<path d="M43.25 48.8C43.4 48.05 43.4 47.3 43.25 46.55C42.95 44.75 41.6 43.4 39.95 42.8C39.05 42.5 38 42.2 36.8 42.05C33.2 41.3 29.15 40.4 27.65 37.25C27.05 36.05 26.75 35 26.45 33.95C24.35 37.25 23 41.3 23 45.5C23 53.2999 27.35 60.2 33.65 63.8C33.65 63.5 33.8 63.35 33.8 63.05C33.65 62.15 33.5 61.4 33.5 60.5C33.5 54.65 37.7 49.85 43.25 48.8Z" fill="#0037FC"/>
<path d="M37.4 39.05C38.6 39.35 39.8 39.65 40.85 39.95C43.55 40.85 45.65 43.1 46.1 45.95C46.25 46.85 46.25 47.75 46.1 48.65C47.9 48.8 49.55 49.25 51.05 50.15H55.4C56.9 49.1 58.1 47.75 59 46.25C61.1 43.1 61.55 37.25 61.7 34.7C58.25 28.55 51.65 24.5 44 24.5C38.15 24.5 32.9 26.9 29 30.8C29 31.55 29.3 33.65 30.35 35.75C31.25 37.7 34.55 38.3 37.4 39.05Z" fill="#0037FC"/>
<path d="M61.25 48.4999C61.55 48.4999 61.7 48.4999 62 48.4999C62.9 48.4999 63.8 48.6499 64.7 48.7999C64.85 47.7499 65 46.5499 65 45.4999C65 43.6999 64.7 42.0499 64.4 40.3999C63.95 42.9499 63.2 45.7999 61.85 47.7499C61.55 48.0499 61.4 48.3499 61.25 48.4999Z" fill="#0037FC"/>
</svg>
